remix/Map/suitcase-2-line.svg

<svg viewBox="0 0 24 24" fill="currentColor" xmlns="http://www.w3.org/2000/svg"><path d="M18 23H16V22H8V23H6V22H5C3.89543 22 3 21.1046 3 20V7C3 5.89543 3.89543 5 5 5H8V3C8 2.44772 8.44772 2 9 2H15C15.5523 2 16 2.44772 16 3V5H19C20.1046 5 21 5.89543 21 7V20C21 21.1046 20.1046 22 19 22H18V23ZM19 7H5V20H19V7ZM10 9V18H8V9H10ZM16 9V18H14V9H16ZM14 4H10V5H14V4Z"/></svg>

<svg viewBox="0 0 24 24" xmlns="http://www.w3.org/2000/svg"><path fill="none" d="M0 0h24v24H0Z"/><path d="M18 23h-2v-1H8v1H6v-1H5c-1.105 0-2-.9-2-2V7c0-1.11.895-2 2-2h3V3c0-.552.44-1 1-1h6c.55 0 1 .44 1 1v2h3c1.1 0 2 .89 2 2v13c0 1.1-.9 2-2 2h-1v1Zm1-16H5v13h14V7Zm-9 2v9H8V9h2Zm6 0v9h-2V9h2Zm-2-5h-4v1h4V4Z"/></svg>
